rospo-icon-theme-classic-common/48x48/places/folder-orange-mail.svg

<svg height="48" width="48" xmlns="http://www.w3.org/2000/svg"><rect height="26" opacity=".2" rx="2" width="40" x="4" y="17"/><path d="m4 34c0 1.108.892 2 2 2h36c1.108 0 2-.892 2-2v-22c0-1.108-.892-2-2-2h-20v-2c0-1.108-.892-2-2-2h-14c-1.108 0-2 .892-2 2" fill="#dd772f"/><rect height="26" opacity=".2" rx="2" width="40" x="4" y="15"/><rect fill="#e4e4e4" height="16" rx="2" width="36" x="6" y="13"/><rect fill="#ee923a" height="26" rx="2" width="40" x="4" y="16"/><path d="m6 6c-1.108 0-2 .892-2 2v1c0-1.108.892-2 2-2h14c1.108 0 2 .892 2 2v-1c0-1.108-.892-2-2-2zm16 4v1h20c1.108 0 2 .892 2 2v-1c0-1.108-.892-2-2-2z" fill="#fff" opacity=".1"/><path d="m24 21c-4.418 0-8 3.582-8 8s3.582 8 8 8h5s .937 0 1-1c0-1-1-1-1-1h-5c-3.314 0-6-2.686-6-6s2.686-6 6-6 6 2.686 6 6v1c0 .552-.448 1-1 1s-1-.448-1-1v-1c0-2.209-1.791-4-4-4s-4 1.791-4 4 1.791 4 4 4c1.046 0 1.99-.411 2.703-1.068.57.677 1.411 1.068 2.297 1.068 1.657 0 3-1.344 3-3v-1c0-4.418-3.582-8-8-8zm0 6c1.105 0 2 .895 2 2s-.895 2-2 2-2-.895-2-2 .895-2 2-2z" fill="#533314"/></svg>

<svg xmlns="http://www.w3.org/2000/svg" width="48" height="48" version="1">
 <rect style="opacity:0.2" width="40" height="26" x="4" y="17" rx="2" ry="2"/>
 <path style="fill:#dd772f" d="M 4,34 C 4,35.108 4.892,36 6,36 H 42 C 43.108,36 44,35.108 44,34 V 12 C 44,10.892 43.108,10 42,10 H 22 V 8 C 22,6.892 21.108,6 20,6 H 6 C 4.892,6 4,6.892 4,8"/>
 <rect style="opacity:0.2" width="40" height="26" x="4" y="15" rx="2" ry="2"/>
 <rect style="fill:#dcdcdc" width="36" height="16" x="6" y="13" rx="2" ry="2"/>
 <rect style="fill:#ee923a" width="40" height="26" x="4" y="16" rx="2" ry="2"/>
 <path style="opacity:0.1;fill:#ffffff" d="M 6,6 C 4.892,6 4,6.892 4,8 V 9 C 4,7.892 4.892,7 6,7 H 20 C 21.108,7 22,7.892 22,9 V 8 C 22,6.892 21.108,6 20,6 Z M 22,10 V 11 H 42 C 43.108,11 44,11.892 44,13 V 12 C 44,10.892 43.108,10 42,10 Z"/>
 <path style="fill:#533314" d="M 24,21 C 19.582,21 16,24.582 16,29 16,33.418 19.582,37 24,37 H 29 C 29,37 29.937,37 30,36 30,35 29,35 29,35 H 24 C 20.686,35 18,32.314 18,29 18,25.686 20.686,23 24,23 27.314,23 30,25.686 30,29 V 30 C 30,30.552 29.552,31 29,31 28.448,31 28,30.552 28,30 V 29 C 28,26.791 26.209,25 24,25 21.791,25 20,26.791 20,29 20,31.209 21.791,33 24,33 25.046,33 25.99,32.589 26.703,31.932 27.273,32.609 28.114,33 29,33 30.657,33 32,31.656 32,30 V 29 C 32,24.582 28.418,21 24,21 Z M 24,27 C 25.105,27 26,27.895 26,29 26,30.105 25.105,31 24,31 22.895,31 22,30.105 22,29 22,27.895 22.895,27 24,27 Z"/>
</svg>
